!!!OTL: MAN LEGT DEN BRANDENBURGER AUF EIN TISCH
!!!ARE: Europa, Mitteleuropa, Deutschland
!!!SCT: E0100
!!!YEM: Copyright 1995, estate of Helmut Schaffrath.
**kern
*ICvox
*Ivox
*M4/4
*k[b-e-]
*B-:
{4g
4g
4g
=1
4b-
4dd
4dd
4cc
=2
2b-
4r}
{4b-
=3
4b-
8a
8g
4f
4b-
=4
2a
2g
=5
2f
4r}
{4f
=6
4f
8e-
8d
4f
4b-
=7
4.g
8f
4g}
{4b-
=8
4cc
8b-
8a
4g
4f
=9
2e-
4d
4r
=10
4r}
==
!!!AGN: erzaehlendes Volks - Lied, Sage, Liebe, Leid, Tod, Ballade ?
!!!ONB: ESAC (Essen Associative Code) Database: ERK1
!!!AMT: simple quadruple
!!!AIN: vox
!!!EED: Helmut Schaffrath
!!!EEV: 1.0
*-
